X: 2
T: Tripping Down The Stairs
R: reel
M: 4/4
L: 1/8
K: Gmaj
dc|BGFG BGAc|BGDC DB,DC|B,G,B,D ECEG|FDEF GBdc|BGFG BGAc|BGDC B,G,DC|B,G,B,D ECEG|FDEF G2:||:(3gfg|bgfg egdg|caBg AfGe|FdEc DBCA|B,GA,F G,B,DF|GABc dBGB|ABcA BGDC|B,G,B,D ECEG|FDEF G2:|


Tune 760	Setting 760

